X: 1107
T: Johnny the Jumper
R:double jig
N:"collected by J.O'Neill"
B:O'Neill's 1107
Z:Transcribed by henrik.norbeck@mailbox.swipnet.se
M:6/8
L:1/8
K:C
(g/f/)|:eAA cBA|eAA ^f^ga|eAA c2e|dBG Bcd|
eAA cBA|eAA B2A|GBG g^fg|dBG Bcd:|
cBA a^ga|cBA Bcd|cBA g^fg|dBG Bcd|
cBA a^ga|cBA B2A|GBG g^fg|dBG Bcd:|


